X:056
%%topmargin 3cm
T:The Hare's Foot
B:The Nelson Music Collection
N:Newton F. Tolman & K. Dep. Gilbert
Z:Transcribed by Ralph Palmer
R:Rant
L:1/16
M:2/4
K:EAeo
e2 | G2GA BEE2 | BEdE BEEF | G2GA BABd | egfd e2 :|
(ef) | ((3gag) ((3fgf) edBc | d2ed Bdd2 | ((3gag) ((3fgf) edBd | dgfd e2 ef |
((3gag) ((3fgf) edBc | d2ed Bddg | bgaf gfed | egfd e2 |]

